X:2291
T:Grannens bastu
R:Visa
M:2/4
L:1/8
K:Dm
|:DD D/E/F/G/ | AA F>A | cc dc | A2 F2 :|
w:Gran-nens ba-stu den har vält om-kull, och vå-ran står och lu-tar.
|:cc =BG | AF D>E | FF/G/ FE/E/ | D2 D2 :|
w:Bät-tre ha en kro-kig en, ~ än å va' all-de-les u-tan.
(:musicend:)
(:music:)
